client/img/icon-fb.svg

<?xml version="1.0" encoding="UTF-8"?>
<svg width="31px" height="31px" viewBox="0 0 31 31" version="1.1" xmlns="http://www.w3.org/2000/svg" xmlns:xlink="http://www.w3.org/1999/xlink">
    <!-- Generator: Sketch 42 (36781) - http://www.bohemiancoding.com/sketch -->
    <title>icon-fb</title>
    <desc>Created with Sketch.</desc>
    <defs></defs>
    <g id="Mockups" stroke="none" stroke-width="1" fill="none" fill-rule="evenodd">
        <g id="Assets" transform="translate(-43.000000, -273.000000)">
            <g id="icon-fb" transform="translate(43.000000, 273.000000)">
                <ellipse id="Oval-3" fill="#FFFFFF" opacity="0.5" cx="15.5" cy="15.5" rx="14.5" ry="14.5"></ellipse>
                <path d="M19.7604167,9.01666667 C19.5520823,9.01666667 19.1484405,9.12343643 18.5494792,9.33697917 C17.9505178,9.5505219 17.6510417,10.1677032 17.6510417,11.1885417 L17.6510417,13.5166667 L15.6510417,13.5166667 L15.6510417,15.0166667 L17.6510417,15.0166667 L17.6510417,22.5166667 L19.1510417,22.5166667 L19.1510417,15.0166667 L21.3229167,15.0166667 L21.6822917,13.5166667 L19.1510417,13.5166667 L19.1510417,11.1416667 L19.2369792,10.8369792 C19.2942711,10.6338532 19.4999982,10.5322917 19.8541667,10.5322917 L21.1510417,10.5322917 L21.1510417,9.03229167 L19.8541667,9.03229167 L19.8307292,9.02447917 C19.8151041,9.01927081 19.7916668,9.01666667 19.7604167,9.01666667 Z M19.7604167,8.01666667 C19.7812501,8.01666667 19.8020832,8.01927081 19.8229167,8.02447917 C19.8437501,8.02968753 19.8645832,8.03229167 19.8854167,8.03229167 L21.1666667,8.03229167 C21.4375014,8.03229167 21.6692699,8.12864487 21.8619792,8.32135417 C22.0546885,8.51406346 22.1510417,8.75104026 22.1510417,9.03229167 L22.1510417,10.5322917 C22.1510417,10.8031264 22.0520843,11.037499 21.8541667,11.2354167 C21.656249,11.4333343 21.4218764,11.5322917 21.1510417,11.5322917 L20.1510417,11.5322917 L20.1510417,12.5166667 L21.6822917,12.5166667 C21.8385424,12.5166667 21.9869785,12.5505205 22.1276042,12.6182292 C22.2682299,12.6859378 22.3854162,12.7874993 22.4791667,12.9229167 C22.5729171,13.0479173 22.6354165,13.1859367 22.6666667,13.3369792 C22.6979168,13.4880216 22.6875003,13.6416659 22.6354167,13.7979167 L22.2916667,15.2979167 C22.2291664,15.506251 22.1093759,15.6781243 21.9322917,15.8135417 C21.7552074,15.948959 21.5520845,16.0166667 21.3229167,16.0166667 L20.1510417,16.0166667 L20.1510417,22.5010417 C20.1510417,22.7822931 20.0520843,23.0192699 19.8541667,23.2119792 C19.656249,23.4046885 19.4218764,23.5010417 19.1510417,23.5010417 L17.6510417,23.5010417 C17.3697903,23.5010417 17.1328135,23.4046885 16.9401042,23.2119792 C16.7473949,23.0192699 16.6510417,22.7822931 16.6510417,22.5010417 L16.6510417,16.0166667 L15.6510417,16.0166667 C15.380207,16.0166667 15.1458343,15.9177093 14.9479167,15.7197917 C14.749999,15.521874 14.6510417,15.2875014 14.6510417,15.0166667 L14.6510417,13.5166667 C14.6510417,13.3812493 14.6770831,13.2536464 14.7291667,13.1338542 C14.7812503,13.0140619 14.8541662,12.9072921 14.9479167,12.8135417 C15.0416671,12.7197912 15.1484369,12.6468753 15.2682292,12.5947917 C15.3880214,12.5427081 15.5156243,12.5166667 15.6510417,12.5166667 L16.6510417,12.5166667 L16.6510417,11.1885417 C16.6510417,10.4177045 16.8020818,9.82135628 17.1041667,9.39947917 C17.4062515,8.97760206 17.7135401,8.6729176 18.0260417,8.48541667 C18.3593767,8.28749901 18.6874984,8.15989612 19.0104167,8.10260417 C19.3333349,8.04531221 19.5833324,8.01666667 19.7604167,8.01666667 Z" id="Social-facebook---simple-line-icons" fill="#4A4A4A"></path>
                <path d="M15.485426,30.470852 C7.20920374,30.470852 0.5,23.7616482 0.5,15.485426 C0.5,7.20920374 7.20920374,0.5 15.485426,0.5 C23.7616482,0.5 30.470852,7.20920374 30.470852,15.485426 C30.470852,23.7616482 23.7616482,30.470852 15.485426,30.470852 Z M15.485426,29.470852 C23.2093635,29.470852 29.470852,23.2093635 29.470852,15.485426 C29.470852,7.76148849 23.2093635,1.5 15.485426,1.5 C7.76148849,1.5 1.5,7.76148849 1.5,15.485426 C1.5,23.2093635 7.76148849,29.470852 15.485426,29.470852 Z" id="Oval-2-Copy" fill="#4A4A4A" fill-rule="nonzero"></path>
            </g>
        </g>
    </g>
</svg>

<svg width="31" height="31" viewBox="0 0 31 31" xmlns="http://www.w3.org/2000/svg"><title>00CA72D4-CCCD-4B12-A63A-66FEB3538435</title><g fill="#4A4A4A" fill-rule="evenodd"><path d="M19.76 9.017c-.208 0-.612.106-1.21.32-.6.214-.899.83-.899 1.852v2.328h-2v1.5h2v7.5h1.5v-7.5h2.172l.36-1.5H19.15v-2.375l.086-.305c.057-.203.263-.305.617-.305h1.297v-1.5h-1.297l-.023-.008a.237.237 0 0 0-.07-.007zm0-1c.021 0 .042.002.063.007.02.006.042.008.062.008h1.282c.27 0 .502.097.695.29.193.192.289.429.289.71v1.5c0 .271-.099.505-.297.703a.961.961 0 0 1-.703.297h-1v.985h1.531c.157 0 .305.034.446.101.14.068.257.17.351.305.094.125.156.263.188.414a.875.875 0 0 1-.032.46l-.343 1.5a.996.996 0 0 1-.36.517.976.976 0 0 1-.61.203h-1.171V22.5a.953.953 0 0 1-.297.711.974.974 0 0 1-.703.289h-1.5a.966.966 0 0 1-.71-.289.966.966 0 0 1-.29-.711v-6.484h-1a.961.961 0 0 1-.703-.297.961.961 0 0 1-.297-.703v-1.5a.95.95 0 0 1 .078-.383 1.03 1.03 0 0 1 .54-.54.95.95 0 0 1 .382-.077h1v-1.328c0-.771.151-1.368.453-1.79.302-.421.61-.726.922-.914a2.94 2.94 0 0 1 .984-.382c.323-.058.573-.086.75-.086z"/><path d="M15.485 30.47C7.21 30.47.5 23.763.5 15.486.5 7.21 7.21.5 15.485.5c8.277 0 14.986 6.71 14.986 14.985 0 8.277-6.71 14.986-14.986 14.986zm0-1c7.724 0 13.986-6.26 13.986-13.985C29.47 7.761 23.209 1.5 15.485 1.5 7.761 1.5 1.5 7.761 1.5 15.485c0 7.724 6.261 13.986 13.985 13.986z" fill-rule="nonzero"/></g></svg>
